neru-light-classic/32x32/apps/pdfsam.svg

<?xml version="1.0" encoding="UTF-8" standalone="no"?>
<svg
   xmlns:dc="http://purl.org/dc/elements/1.1/"
   xmlns:cc="http://creativecommons.org/ns#"
   xmlns:rdf="http://www.w3.org/1999/02/22-rdf-syntax-ns#"
   xmlns:svg="http://www.w3.org/2000/svg"
   xmlns="http://www.w3.org/2000/svg"
   xmlns:sodipodi="http://sodipodi.sourceforge.net/DTD/sodipodi-0.dtd"
   xmlns:inkscape="http://www.inkscape.org/namespaces/inkscape"
   height="32"
   width="32"
   version="1"
   id="svg30"
   sodipodi:docname="pdfsam.svg"
   inkscape:version="0.92.1 r">
  <metadata
     id="metadata36">
    <rdf:RDF>
      <cc:Work
         rdf:about="">
        <dc:format>image/svg+xml</dc:format>
        <dc:type
           rdf:resource="http://purl.org/dc/dcmitype/StillImage" />
        <dc:title></dc:title>
      </cc:Work>
    </rdf:RDF>
  </metadata>
  <defs
     id="defs34" />
  <sodipodi:namedview
     pagecolor="#ffffff"
     bordercolor="#666666"
     borderopacity="1"
     objecttolerance="10"
     gridtolerance="10"
     guidetolerance="10"
     inkscape:pageopacity="0"
     inkscape:pageshadow="2"
     inkscape:window-width="640"
     inkscape:window-height="480"
     id="namedview32"
     showgrid="false"
     inkscape:zoom="6.2313785"
     inkscape:cx="-27.012613"
     inkscape:cy="44.794272"
     inkscape:current-layer="svg30" />
  <path
     style="opacity:1;fill:#4eaf44;fill-opacity:1;fill-rule:evenodd;stroke:none;stroke-width:1.03534329;stroke-linecap:round;stroke-linejoin:bevel;stroke-miterlimit:4;stroke-dasharray:none;stroke-dashoffset:0;stroke-opacity:1"
     d="M 1.8984375 17.615234 C 2.0275839 17.519118 2.1872029 17.394531 2.2128906 17.394531 C 2.277089 17.394531 2.7906953 17.079857 3.0175781 16.902344 C 3.0645318 16.865597 3.5069438 16.63942 4 16.400391 C 4.4930562 16.161372 5.2640005 15.78826 5.7128906 15.570312 C 6.1617912 15.352353 6.5543525 15.173828 6.5859375 15.173828 C 6.6175227 15.173828 6.8865666 15.025555 7.1835938 14.84375 C 7.4806314 14.661955 7.8061952 14.486878 7.90625 14.455078 C 8.2153283 14.356984 9.8062297 13.285907 10.513672 12.699219 C 11.289882 12.055487 12.363842 10.896312 12.583984 10.466797 C 12.665056 10.308627 12.761585 10.160139 12.796875 10.136719 C 12.863797 10.092171 13.022221 9.7881408 13.466797 8.8554688 C 14.016579 7.6492147 14.363747 6.1407191 14.382812 4.6542969 C 14.392345 3.9110858 14.321103 3.174005 14.150391 2.4824219 C 14.0978 2.2693688 13.968149 2.1015561 13.896484 1.8984375 L 7.4726562 1.8984375 C 4.3840054 1.8984375 1.8984375 4.3840054 1.8984375 7.4726562 L 1.8984375 17.615234 z "
     id="path4599" />
  <path
     style="opacity:1;fill:#4eaf44;fill-opacity:1;fill-rule:evenodd;stroke:none;stroke-width:1.03534329;stroke-linecap:round;stroke-linejoin:bevel;stroke-miterlimit:4;stroke-dasharray:none;stroke-dashoffset:0;stroke-opacity:1"
     d="M 27.412109 29.185547 C 27.19157 29.117011 26.811539 29.008407 26.478516 28.921875 C 25.410304 28.644287 23.03174 27.567504 22.234375 27 C 22.003062 26.835365 21.780934 26.699219 21.740234 26.699219 C 21.699523 26.699219 21.461672 26.547211 21.212891 26.359375 C 20.124286 25.540547 18.915697 24.763684 17.626953 24.109375 C 16.338209 23.455066 14.969728 22.922277 13.566406 22.589844 C 12.66621 22.391575 10.885461 22.375005 10.019531 22.556641 C 8.8322439 22.805691 7.7149271 23.186623 6.7558594 23.658203 C 5.7967917 24.129783 4.9949106 24.692946 4.4355469 25.302734 C 3.8906085 25.896799 3.3499174 26.954611 3.2714844 27.582031 C 3.2392849 27.839744 3.4682121 28.134464 3.5507812 28.488281 C 4.5568976 29.484277 5.9385191 30.101562 7.4726562 30.101562 L 24.527344 30.101562 C 25.609469 30.101562 26.558843 29.714944 27.412109 29.185547 z "
     id="path4597" />
  <path
     style="opacity:1;fill:#ffffff;fill-opacity:1;fill-rule:evenodd;stroke:none;stroke-width:1.03534329;stroke-linecap:round;stroke-linejoin:bevel;stroke-miterlimit:4;stroke-dasharray:none;stroke-dashoffset:0;stroke-opacity:1"
     d="M 30.101562 24.148438 L 30.101562 22.150391 C 30.037729 22.145635 29.975622 22.178644 29.912109 22.169922 C 29.136806 22.063449 28.356249 21.807954 27.597656 21.419922 C 26.839064 21.03189 26.101794 20.510032 25.416016 19.869141 C 24.476519 18.991139 24.151584 18.635538 23.705078 17.992188 C 22.863092 16.779001 22.349802 15.516721 21.916016 13.59375 C 21.731169 12.774349 21.768787 8.7081377 21.974609 7.1914062 C 22.206305 5.4836732 22.173872 3.6353274 21.904297 1.8984375 L 19.759766 1.8984375 C 19.766548 1.9408177 19.79715 2.0092516 19.802734 2.0488281 C 19.951566 3.1036433 19.977196 5.3706884 19.853516 6.4101562 C 19.642267 8.1853873 19.563505 10.632704 19.667969 12.142578 C 19.781697 13.786424 19.889596 14.404508 20.289062 15.701172 C 20.57443 16.627453 21.277724 18.167422 21.589844 18.548828 C 21.695092 18.677489 21.868194 18.92547 21.974609 19.101562 C 22.081033 19.277655 22.195511 19.421875 22.228516 19.421875 C 22.261476 19.421875 22.352647 19.529086 22.431641 19.658203 C 22.624385 19.97327 23.202461 20.588087 23.783203 21.097656 C 24.044713 21.327115 24.386975 21.628659 24.544922 21.769531 C 24.702879 21.910413 24.955471 22.103348 25.105469 22.197266 C 25.255477 22.291176 25.507613 22.468891 25.666016 22.591797 C 26.142543 22.96156 26.89831 23.33786 27.693359 23.630859 C 28.488408 23.923859 29.322163 24.13278 29.955078 24.171875 C 30.010798 24.175317 30.047846 24.146104 30.101562 24.148438 z "
     id="path4606" />
  <path
     style="opacity:1;fill:#ffffff;fill-opacity:1;fill-rule:evenodd;stroke:none;stroke-width:1.03534329;stroke-linecap:round;stroke-linejoin:bevel;stroke-miterlimit:4;stroke-dasharray:none;stroke-dashoffset:0;stroke-opacity:1"
     d="M 1.9707031 24.878906 C 2.0628951 26.283671 2.6133404 27.560271 3.5507812 28.488281 C 3.4682122 28.134464 3.2392849 27.839744 3.2714844 27.582031 C 3.3499174 26.954611 3.8906085 25.896799 4.4355469 25.302734 C 4.9949106 24.692946 5.7967917 24.129783 6.7558594 23.658203 C 7.7149271 23.186623 8.8322442 22.805691 10.019531 22.556641 C 10.885461 22.375005 12.66621 22.391575 13.566406 22.589844 C 14.969728 22.922277 16.338209 23.455066 17.626953 24.109375 C 18.915697 24.763684 20.124286 25.540547 21.212891 26.359375 C 21.461672 26.547211 21.699523 26.699219 21.740234 26.699219 C 21.780934 26.699219 22.003062 26.835365 22.234375 27 C 23.03174 27.567504 25.410304 28.644287 26.478516 28.921875 C 26.811539 29.008407 27.19157 29.117011 27.412109 29.185547 C 28.240738 28.671436 28.907498 27.952537 29.384766 27.111328 C 28.321566 26.904959 26.70161 26.523877 26.125 26.28125 C 25.843246 26.1627 25.466307 26.010122 25.287109 25.943359 C 25.107911 25.876589 24.658032 25.649928 24.287109 25.439453 C 23.916185 25.228988 23.591399 25.056641 23.566406 25.056641 C 23.541396 25.056641 23.334238 24.922161 23.105469 24.757812 C 22.87671 24.593453 22.662476 24.458984 22.630859 24.458984 C 22.599279 24.458984 22.353944 24.297225 22.085938 24.097656 C 21.81793 23.898076 21.53505 23.695391 21.457031 23.648438 C 21.051989 23.40466 19.948572 22.708782 19.75 22.572266 C 19.302148 22.264386 18.266059 21.724096 17.160156 21.222656 C 16.391027 20.873927 15.906479 20.714153 14.384766 20.300781 C 13.634842 20.097067 13.438991 20.07982 11.78125 20.078125 C 9.9211938 20.076025 9.5140333 20.130528 8.3242188 20.53125 C 8.0659523 20.61827 7.6567302 20.748751 7.4160156 20.822266 C 6.888661 20.983339 5.303662 21.720932 5.2636719 21.824219 C 5.2479849 21.864599 5.2002815 21.898437 5.1582031 21.898438 C 5.0658851 21.898438 4.1432091 22.480696 3.9824219 22.640625 C 3.9196759 22.703055 3.7299617 22.859863 3.5605469 22.988281 C 3.2224591 23.244555 2.6369785 23.855842 2.4335938 24.164062 C 2.3623678 24.272013 2.1870443 24.52684 2.0449219 24.730469 C 2.0257181 24.757985 1.9933581 24.841761 1.9707031 24.878906 z "
     id="path4604" />
  <path
     style="opacity:1;fill:#ffffff;fill-opacity:1;fill-rule:evenodd;stroke:none;stroke-width:1.03534329;stroke-linecap:round;stroke-linejoin:bevel;stroke-miterlimit:4;stroke-dasharray:none;stroke-dashoffset:0;stroke-opacity:1"
     d="M 16.337891 1.8984375 L 13.896484 1.8984375 C 13.968149 2.1015561 14.0978 2.2693688 14.150391 2.4824219 C 14.321103 3.174005 14.392345 3.9110858 14.382812 4.6542969 C 14.363748 6.1407191 14.016579 7.6492147 13.466797 8.8554688 C 13.022221 9.7881408 12.863797 10.092171 12.796875 10.136719 C 12.761585 10.160139 12.665056 10.308627 12.583984 10.466797 C 12.363842 10.896312 11.289882 12.055487 10.513672 12.699219 C 9.8062296 13.285907 8.2153283 14.356984 7.90625 14.455078 C 7.8061952 14.486878 7.4806313 14.661955 7.1835938 14.84375 C 6.8865666 15.025555 6.6175227 15.173828 6.5859375 15.173828 C 6.5543525 15.173828 6.1617912 15.352353 5.7128906 15.570312 C 5.2640005 15.78826 4.4930562 16.161372 4 16.400391 C 3.5069438 16.63942 3.0645318 16.865597 3.0175781 16.902344 C 2.7906953 17.079857 2.277089 17.394531 2.2128906 17.394531 C 2.1872029 17.394531 2.0275839 17.519118 1.8984375 17.615234 L 1.8984375 20.191406 C 1.9543634 20.145474 2.0060279 20.084656 2.0527344 20.054688 C 2.1906596 19.966188 2.5030051 19.739136 2.7460938 19.550781 C 3.2956003 19.124996 3.6760263 18.886327 4.4394531 18.480469 C 5.4299323 17.95392 5.5165088 17.909905 6.4023438 17.505859 C 7.3403365 17.078029 7.5390084 16.976213 8.7929688 16.285156 C 10.270908 15.470684 10.93343 15.050095 11.472656 14.582031 C 11.678362 14.40348 11.888856 14.242956 11.941406 14.224609 C 12.162639 14.147339 13.513319 12.781122 14.074219 12.068359 C 14.706759 11.26455 15.512309 9.7490015 15.994141 8.4511719 C 16.106586 8.1482834 16.299521 7.2586395 16.523438 6.0175781 C 16.704235 5.0154612 16.737959 3.5452504 16.599609 2.6894531 C 16.551192 2.3899366 16.427941 2.2373424 16.337891 1.8984375 z "
     id="path4602" />
  <path
     style="opacity:1;fill:#f08d25;fill-opacity:1;fill-rule:evenodd;stroke:none;stroke-width:1.03534329;stroke-linecap:round;stroke-linejoin:bevel;stroke-miterlimit:4;stroke-dasharray:none;stroke-dashoffset:0;stroke-opacity:1"
     d="M 16.337891 1.8984375 C 16.427941 2.2373424 16.551192 2.3899366 16.599609 2.6894531 C 16.737959 3.5452504 16.704235 5.0154612 16.523438 6.0175781 C 16.299521 7.2586395 16.106586 8.1482834 15.994141 8.4511719 C 15.512309 9.7490015 14.706759 11.26455 14.074219 12.068359 C 13.513319 12.781122 12.162639 14.147339 11.941406 14.224609 C 11.888856 14.242956 11.678362 14.40348 11.472656 14.582031 C 10.93343 15.050095 10.270908 15.470684 8.7929688 16.285156 C 7.5390084 16.976213 7.3403365 17.078029 6.4023438 17.505859 C 5.5165088 17.909905 5.4299323 17.95392 4.4394531 18.480469 C 3.6760263 18.886327 3.2956003 19.124996 2.7460938 19.550781 C 2.5030051 19.739136 2.1906596 19.966188 2.0527344 20.054688 C 2.0060279 20.084656 1.9543634 20.145474 1.8984375 20.191406 L 1.8984375 24.527344 C 1.8984375 24.652437 1.9626351 24.75597 1.9707031 24.878906 C 1.9933581 24.841761 2.0257181 24.757985 2.0449219 24.730469 C 2.1870443 24.52684 2.3623678 24.272013 2.4335938 24.164062 C 2.6369785 23.855842 3.2224591 23.244555 3.5605469 22.988281 C 3.7299617 22.859863 3.9196759 22.703055 3.9824219 22.640625 C 4.1432091 22.480696 5.0658851 21.898438 5.1582031 21.898438 C 5.2002815 21.898437 5.2479849 21.864599 5.2636719 21.824219 C 5.303662 21.720932 6.888661 20.983339 7.4160156 20.822266 C 7.6567302 20.748751 8.0659523 20.61827 8.3242188 20.53125 C 9.5140333 20.130528 9.9211938 20.076025 11.78125 20.078125 C 13.438991 20.07982 13.634842 20.097067 14.384766 20.300781 C 15.906479 20.714153 16.391027 20.873927 17.160156 21.222656 C 18.266059 21.724096 19.302148 22.264386 19.75 22.572266 C 19.948572 22.708782 21.051989 23.40466 21.457031 23.648438 C 21.53505 23.695391 21.81793 23.898076 22.085938 24.097656 C 22.353944 24.297225 22.599279 24.458984 22.630859 24.458984 C 22.662476 24.458984 22.87671 24.593453 23.105469 24.757812 C 23.334238 24.922161 23.541396 25.056641 23.566406 25.056641 C 23.591399 25.056641 23.916185 25.228988 24.287109 25.439453 C 24.658032 25.649928 25.107911 25.876589 25.287109 25.943359 C 25.466307 26.010122 25.843246 26.1627 26.125 26.28125 C 26.70161 26.523877 28.321566 26.904959 29.384766 27.111328 C 29.818782 26.346351 30.101562 25.48299 30.101562 24.527344 L 30.101562 24.148438 C 30.047846 24.146104 30.010798 24.175317 29.955078 24.171875 C 29.322163 24.13278 28.488408 23.923859 27.693359 23.630859 C 26.89831 23.33786 26.142543 22.96156 25.666016 22.591797 C 25.507613 22.468891 25.255477 22.291176 25.105469 22.197266 C 24.955471 22.103348 24.702879 21.910413 24.544922 21.769531 C 24.386975 21.628659 24.044713 21.327115 23.783203 21.097656 C 23.202461 20.588087 22.624385 19.97327 22.431641 19.658203 C 22.352647 19.529086 22.261476 19.421875 22.228516 19.421875 C 22.195511 19.421875 22.081033 19.277655 21.974609 19.101562 C 21.868194 18.92547 21.695092 18.677489 21.589844 18.548828 C 21.277724 18.167422 20.57443 16.627453 20.289062 15.701172 C 19.889596 14.404508 19.781697 13.786424 19.667969 12.142578 C 19.563505 10.632704 19.642267 8.1853873 19.853516 6.4101562 C 19.977196 5.3706884 19.951566 3.1036433 19.802734 2.0488281 C 19.79715 2.0092516 19.766548 1.9408177 19.759766 1.8984375 L 16.337891 1.8984375 z "
     id="path4595" />
  <path
     style="opacity:1;fill:#4eaf44;fill-opacity:1;fill-rule:evenodd;stroke:none;stroke-width:1.03534329;stroke-linecap:round;stroke-linejoin:bevel;stroke-miterlimit:4;stroke-dasharray:none;stroke-dashoffset:0;stroke-opacity:1"
     d="M 21.904297 1.8984375 C 22.173872 3.6353274 22.206305 5.4836732 21.974609 7.1914062 C 21.768787 8.7081376 21.731169 12.774349 21.916016 13.59375 C 22.349802 15.516721 22.863092 16.779002 23.705078 17.992188 C 24.151584 18.635538 24.476519 18.991139 25.416016 19.869141 C 26.101794 20.510032 26.839064 21.03189 27.597656 21.419922 C 28.356249 21.807954 29.136806 22.063449 29.912109 22.169922 C 29.975622 22.178644 30.037729 22.145635 30.101562 22.150391 L 30.101562 7.4726562 C 30.101563 4.3840054 27.615995 1.8984375 24.527344 1.8984375 L 21.904297 1.8984375 z "
     id="rect4497-3" />
</svg>

<svg xmlns="http://www.w3.org/2000/svg" height="32" width="32" version="1"><path d="M1.898 17.615c.13-.096.29-.22.315-.22.064 0 .578-.315.805-.493.047-.036.489-.263.982-.502l1.713-.83c.449-.218.841-.396.873-.396.032 0 .3-.148.598-.33.297-.182.622-.357.722-.389.31-.098 1.9-1.17 2.608-1.756.776-.644 1.85-1.803 2.07-2.232.081-.158.178-.307.213-.33.067-.045.225-.349.67-1.282.55-1.206.897-2.714.916-4.2a8.643 8.643 0 0 0-.233-2.173c-.052-.213-.182-.38-.254-.584H7.473a5.561 5.561 0 0 0-5.575 5.575v10.142zM27.412 29.186c-.22-.069-.6-.178-.933-.264-1.069-.278-3.447-1.354-4.245-1.922-.23-.165-.453-.3-.494-.3-.04 0-.278-.153-.527-.34a24.351 24.351 0 0 0-3.586-2.25c-1.289-.655-2.657-1.188-4.06-1.52-.9-.198-2.682-.215-3.547-.033-1.188.249-2.305.63-3.264 1.101-.96.472-1.761 1.035-2.32 1.645-.545.594-1.086 1.652-1.165 2.279-.032.258.197.552.28.906a5.551 5.551 0 0 0 3.922 1.614h17.054c1.082 0 2.032-.387 2.885-.916z" fill="#4eaf44" fill-rule="evenodd"/><path d="M30.102 24.148V22.15c-.064-.004-.126.029-.19.02a7.275 7.275 0 0 1-2.314-.75 9.66 9.66 0 0 1-2.182-1.55c-.94-.879-1.264-1.234-1.71-1.878-.843-1.213-1.356-2.475-1.79-4.398-.185-.82-.147-4.886.059-6.403.231-1.707.199-3.556-.07-5.293H19.76c.007.043.037.111.043.15.149 1.056.174 3.323.05 4.362-.21 1.775-.29 4.223-.185 5.733.114 1.643.222 2.262.621 3.558.285.926.989 2.466 1.3 2.848.106.128.28.376.386.553.106.176.22.32.254.32.032 0 .124.107.203.236.192.315.77.93 1.351 1.44.262.23.604.53.762.672.158.14.41.333.56.427.15.094.403.272.561.395.477.37 1.232.746 2.027 1.039.795.293 1.63.502 2.262.54.056.004.093-.025.147-.023zM1.97 24.879c.093 1.405.643 2.681 1.58 3.61-.082-.355-.31-.65-.279-.907.079-.627.62-1.685 1.165-2.28.559-.61 1.36-1.172 2.32-1.644.959-.471 2.076-.852 3.264-1.101.865-.182 2.646-.165 3.546.033 1.404.332 2.772.865 4.061 1.52a24.351 24.351 0 0 1 3.586 2.25c.249.187.487.34.527.34.04 0 .263.135.494.3.798.568 3.176 1.644 4.245 1.922.333.086.713.195.933.264a5.78 5.78 0 0 0 1.973-2.075c-1.063-.206-2.683-.587-3.26-.83a27.875 27.875 0 0 0-.838-.338c-.18-.066-.629-.293-1-.504-.37-.21-.696-.382-.72-.382-.026 0-.233-.135-.462-.3-.228-.164-.443-.298-.474-.298-.032 0-.277-.162-.545-.361-.268-.2-.551-.403-.629-.45a69.541 69.541 0 0 1-1.707-1.076c-.448-.308-1.484-.848-2.59-1.35-.769-.348-1.254-.508-2.775-.921-.75-.204-.946-.221-2.604-.223-1.86-.002-2.267.053-3.457.453-.258.087-.667.218-.908.291-.527.161-2.112.899-2.152 1.002a.124.124 0 0 1-.106.074c-.092 0-1.015.583-1.176.743-.062.062-.252.219-.421.347-.339.257-.924.868-1.127 1.176-.072.108-.247.363-.39.566-.018.028-.05.112-.073.149zM16.338 1.898h-2.442c.072.204.202.371.254.584.171.692.242 1.43.233 2.172-.02 1.487-.366 2.995-.916 4.201-.445.933-.603 1.237-.67 1.282-.035.023-.132.172-.213.33-.22.43-1.294 1.588-2.07 2.232-.708.587-2.299 1.658-2.608 1.756-.1.032-.425.207-.722.389-.297.182-.566.33-.598.33-.032 0-.424.178-.873.396L4 16.4c-.493.24-.935.466-.982.502-.227.178-.74.493-.805.493-.026 0-.185.124-.315.22v2.576c.056-.046.108-.106.155-.136.138-.089.45-.316.693-.504.55-.426.93-.665 1.693-1.07.99-.527 1.078-.571 1.963-.975.938-.428 1.137-.53 2.391-1.22 1.478-.815 2.14-1.236 2.68-1.704.205-.179.416-.339.468-.357.222-.078 1.572-1.444 2.133-2.157.633-.803 1.438-2.319 1.92-3.617.113-.303.306-1.192.53-2.433.18-1.003.214-2.473.076-3.329-.049-.3-.172-.452-.262-.79z" fill="#fff" fill-rule="evenodd"/><path d="M16.338 1.898c.09.34.213.492.262.791.138.856.104 2.326-.077 3.329-.223 1.24-.416 2.13-.529 2.433-.482 1.298-1.287 2.814-1.92 3.617-.56.713-1.911 2.08-2.133 2.157-.052.018-.263.178-.468.357-.54.468-1.202.889-2.68 1.703-1.254.691-1.453.793-2.39 1.22-.886.405-.973.449-1.964.975-.763.406-1.143.645-1.693 1.07-.243.19-.555.416-.693.505-.047.03-.099.09-.155.136v4.336c0 .125.065.229.073.352.022-.037.055-.121.074-.149.142-.203.317-.458.389-.566.203-.308.788-.92 1.127-1.176.169-.128.359-.285.421-.347.161-.16 1.084-.743 1.176-.743.042 0 .09-.033.106-.074.04-.103 1.625-.84 2.152-1.002.24-.073.65-.204.908-.29 1.19-.401 1.597-.456 3.457-.454 1.658.002 1.854.02 2.604.223 1.521.413 2.006.573 2.775.922 1.106.501 2.142 1.041 2.59 1.35.199.136 1.302.832 1.707 1.075.078.047.36.25.629.45.268.2.513.361.545.361.031 0 .246.134.474.299.23.164.436.299.461.299.025 0 .35.172.721.382.371.21.82.438 1 .504.18.067.556.22.838.338.577.243 2.197.624 3.26.83.434-.765.717-1.628.717-2.584v-.379c-.054-.002-.091.027-.147.024-.633-.04-1.467-.248-2.262-.541-.795-.293-1.55-.67-2.027-1.04-.158-.122-.41-.3-.56-.394a5.097 5.097 0 0 1-.561-.427c-.158-.141-.5-.443-.762-.672-.58-.51-1.159-1.125-1.351-1.44-.08-.129-.17-.236-.203-.236s-.148-.144-.254-.32a5.777 5.777 0 0 0-.385-.553c-.312-.382-1.016-1.922-1.3-2.848-.4-1.296-.508-1.915-.622-3.558-.104-1.51-.026-3.958.186-5.733.123-1.04.098-3.306-.051-4.361-.006-.04-.036-.108-.043-.15h-3.422z" fill="#f08d25" fill-rule="evenodd"/><path d="M21.904 1.898c.27 1.737.302 3.586.07 5.293-.205 1.517-.243 5.583-.058 6.403.434 1.923.947 3.185 1.79 4.398.446.644.77 1 1.71 1.877a9.66 9.66 0 0 0 2.182 1.55c.758.389 1.539.644 2.314.75.064.01.126-.023.19-.019V7.473a5.561 5.561 0 0 0-5.575-5.575h-2.623z" fill="#4eaf44" fill-rule="evenodd"/></svg>
